X: 413
T: Yiduidui rengxi wo danguagua
L: 1/8
M: 2/4
K: C
e> e d g [I:setbarnb 1]| 
c2A G | 
E2G E | 
d4 | 
e> e d g | 
c2A G | 
E2d2 | 
dc2A | 
G4 |]

@@@ Tune index: 9287
